X: 126
T: Hao fuqi
%%abc-version 2.0
%%abcx-abcm2ps-target-version 5.9.1 (29 Sep 2008)
%%abc-creator hum2abc beta
%%abcx-conversion-date 2013/10/02 07:52:29
%%abc-edited-by Helmut Schaffrath
%%humdrum-veritas 1928802157
%%humdrum-veritas-data 772689630
%%continueall 1
%%barnumbers 0
L: 1/16
M: 2/4
K: G
G2 G A F2 E D [I:setbarnb 1]| 
d2 e gd4 | 
d d2 e g d2 B | 
d G2 BA4 | 
F F E D d d2 e | 
F F A BG4 | 
d A2 d G2 F E | 
G D2 ED4 | 
A G A B2< A2 B | 
d B d eG4 | 
d A2 B G2 F E | 
G D2 ED4 |]  



